X:461
T: NACHTIGALL KLEINS VOEGELEIN
N: E0413
O: Europa, Mitteleuropa, Deutschland, Bergisches Land, Homberg
R: Liebes - Lied
M: 3/4
L: 1/16
K: C
G,2A,B, | C4E4D2DE | C4z2
D2F2E2 | D6C2B,2C2 | D4z4
D2E2 | G2F4D2E2G2 | C4B,2
A,2B,2C2 | D6F2E2D2 | C4z4
D2E2 | G2F4D2E2G2 | C4B,2
A,2B,2C2 | D6F2E2D2 | C4z4

@@@ Tune index: 4111
